icons/google-play-line.svg

<svg xmlns="http://www.w3.org/2000/svg" width="24" height="24" fill="none"><g clip-path="url(#a)"><g><path fill="#121212" d="M4 1.73401C4.17597 1.73414 4.34879 1.78071 4.501 1.86901L20.505 11.135C20.6565 11.2229 20.7823 11.3491 20.8698 11.5009C20.9572 11.6527 21.0032 11.8248 21.0032 12C21.0032 12.1752 20.9572 12.3473 20.8698 12.4991C20.7823 12.6509 20.6565 12.7771 20.505 12.865L4.501 22.131C4.34903 22.219 4.17657 22.2654 4.00098 22.2656C3.82538 22.2657 3.65284 22.2197 3.50069 22.132C3.34855 22.0443 3.22218 21.9181 3.13429 21.7661C3.04639 21.6141 3.00008 21.4416 3 21.266V2.73401C3 2.46879 3.10536 2.21444 3.29289 2.0269C3.48043 1.83937 3.73478 1.73401 4 1.73401ZM12.292 13.414L7.794 17.912L13.493 14.613L12.293 13.413L12.292 13.414ZM5 6.11801V17.878L10.88 11.998L5 6.11801ZM15.284 10.42L13.706 12L15.284 13.577L18.008 12L15.283 10.421L15.284 10.42ZM7.794 6.08401L12.294 10.584L13.493 9.38401L7.794 6.08401Z"/></g></g><defs><clipPath id="a"><rect width="24" height="24" fill="white"/></clipPath></defs></svg>

<svg width="24" height="24" fill="none" xmlns="http://www.w3.org/2000/svg"><g clip-path="url(#a)"><path d="M4 1.734a1 1 0 0 1 .501.135l16.004 9.266a1 1 0 0 1 0 1.73L4.501 22.131A1 1 0 0 1 3 21.266V2.734a1 1 0 0 1 1-1Zm8.292 11.68-4.498 4.498 5.699-3.299-1.2-1.2-.001.001ZM5 6.118v11.76l5.88-5.88L5 6.118Zm10.284 4.302L13.706 12l1.578 1.577L18.008 12l-2.725-1.579.001-.001Zm-7.49-4.336 4.5 4.5 1.199-1.2-5.699-3.3Z" /></g><defs><clipPath id="a"><path fill="#fff" d="M0 0h24v24H0z"/></clipPath></defs></svg>
